X:238
T:Fisherman's Lilt
R:reel
Z:transcribed by Dave Marshall
M:C|
K:C
|: G~E3 GAcd | edcB c~A3 | G~E3 GAcd | edcB c4 :|
|: e~g3 agea | gede c~A3 | e~g3 eaae | gabg a4 |
e~g3 agea | gede c~A3 | G~E3 GAcd | edcB c4 :|
